svgs/light/ellipsis-stroke-vertical.svg

<svg xmlns="http://www.w3.org/2000/svg" viewBox="0 0 192 512"><!-- Font Awesome Pro 6.0.0-alpha2 by @fontawesome - https://fontawesome.com License - https://fontawesome.com/license (Commercial License) --><path d="M96 384C60.654 384 32 412.654 32 448S60.654 512 96 512S160 483.346 160 448S131.346 384 96 384ZM96 480C78.355 480 64 465.645 64 448S78.355 416 96 416S128 430.355 128 448S113.645 480 96 480ZM96 128C131.346 128 160 99.346 160 64S131.346 0 96 0S32 28.654 32 64S60.654 128 96 128ZM96 32C113.645 32 128 46.355 128 64S113.645 96 96 96S64 81.645 64 64S78.355 32 96 32ZM96 192C60.654 192 32 220.654 32 256S60.654 320 96 320S160 291.346 160 256S131.346 192 96 192ZM96 288C78.355 288 64 273.645 64 256S78.355 224 96 224S128 238.355 128 256S113.645 288 96 288Z"/></svg>

<svg xmlns="http://www.w3.org/2000/svg" viewBox="0 0 192 512"><!--! Font Awesome Pro 6.0.0-alpha3 by @fontawesome - https://fontawesome.com License - https://fontawesome.com/license (Commercial License) --><path d="M96 384c-35.35 0-64 28.65-64 64s28.65 64 64 64s64-28.65 64-64S131.3 384 96 384zM96 480c-17.64 0-32-14.36-32-32s14.36-32 32-32s32 14.36 32 32S113.6 480 96 480zM96 128c35.35 0 64-28.65 64-64s-28.65-64-64-64S32 28.65 32 64S60.65 128 96 128zM96 32c17.64 0 32 14.36 32 32s-14.36 32-32 32S64 81.64 64 64S78.36 32 96 32zM96 192C60.65 192 32 220.7 32 256s28.65 64 64 64s64-28.65 64-64S131.3 192 96 192zM96 288C78.36 288 64 273.6 64 256s14.36-32 32-32s32 14.36 32 32S113.6 288 96 288z"/></svg>
